X: 1
T:Harlequin Evry Where. WCl.58
M:6/8
L:1/8
Q:120
S:William Clarke MS,Lincoln,1770.
R:Jig
O:Lincoln
A:England
Z:vmp.Barry Callaghan
K:A
A2A BGE|ecA BGE|e2ef2e|edc B3|!
A2A BGE|ecA BGE|e2ef2e|dcB A3::!
c2B [DA][DA][DA]|e2d [Ec][Ec][Ec]|a2gf2e|edc  B3|!
c2B [DA][DA][DA]|e2c [Ec][Ec][Ec]|
a2ef2e|[Bd][Ac][GB] [F3A3]:||
